X: 268
T:Give The Fiddler A Drink. JaW.267
M:6/8
Q:120
S:James Winder Ms, Lancashire, 1835-41
R:Jig
O:England
A:Wyresdale,Lancashire
H:1/8
Z:vmp.Chris Partington, Aug 2004
K:G
"Key Sig A in MS"D|GAB AFD|G3 AB2|efe dBG|d2B G3:|!
|:d2B d2B|e2c e2f|gfe dBG|d2c A3:|]
